src/images/wordmark.inline.svg

<svg width="500" height="154" viewBox="0 0 500 154" fill="none" xmlns="http://www.w3.org/2000/svg">
<path d="M0.25 45.3482C4.17699 43.8186 8.19531 42.0191 12.4876 39.9496C16.7799 37.8802 20.8896 35.7208 24.9079 33.2914C28.9262 30.8621 32.8532 28.3427 36.5062 25.6434C40.2505 22.9442 43.5383 20.1549 46.552 17.0957H67.5569V151.16H37.4195V55.1556C33.4011 57.7649 28.8349 60.1943 23.9033 62.3537C18.8804 64.5131 14.0401 66.4026 9.38254 67.9322L0.25 45.3482Z" fill="#231F20"/>
<path d="M271.129 17.3654C271.129 22.764 269.393 26.9928 265.832 30.052C262.27 33.1112 258.16 34.6408 253.32 34.6408C248.48 34.6408 244.37 33.1112 240.809 30.052C237.247 26.9928 235.512 22.764 235.512 17.3654C235.512 11.9668 237.247 7.73795 240.809 4.67876C244.462 1.52959 248.571 0 253.411 0C258.252 0 262.361 1.52959 265.923 4.58878C269.393 7.73795 271.129 11.9668 271.129 17.3654ZM268.937 151.16H238.799V47.6874H268.937V151.16Z" fill="#231F20"/>
<path d="M327.855 151.158C321.005 138.022 314.156 122.726 307.124 105.09C300.092 87.545 293.425 68.3801 287.215 47.6855H318.722C320.092 52.8142 321.645 58.3027 323.471 64.3311C325.298 70.2696 327.124 76.298 329.133 82.4163C331.051 88.5347 332.969 94.4731 334.978 100.232C336.896 105.99 338.814 111.209 340.732 115.977C342.467 111.299 344.293 105.99 346.302 100.232C348.312 94.4731 350.321 88.5347 352.239 82.4163C354.156 76.298 356.074 70.2696 357.809 64.3311C359.636 58.3927 361.188 52.8142 362.558 47.6855H393.335C387.034 68.3801 380.458 87.545 373.426 105.09C366.394 122.636 359.545 138.022 352.695 151.158H327.855V151.158Z" fill="#231F20"/>
<path d="M401.273 100.054C401.273 90.8765 402.735 82.7786 405.566 75.9404C408.397 69.0123 412.232 63.3438 416.89 58.665C421.548 54.0763 426.936 50.5672 432.963 48.2278C438.991 45.8884 445.292 44.7188 451.685 44.7188C466.571 44.7188 478.443 49.2175 487.028 58.2152C495.704 67.2128 499.996 80.4393 499.996 97.8946C499.996 99.6042 499.905 101.494 499.814 103.473C499.722 105.543 499.54 107.342 499.448 108.872H431.867C432.507 114.9 435.429 119.669 440.452 123.268C445.475 126.777 452.324 128.576 460.818 128.576C466.297 128.576 471.685 128.127 476.891 127.137C482.188 126.147 486.48 124.977 489.768 123.538L493.786 147.381C492.142 148.191 490.042 149.001 487.393 149.721C484.745 150.531 481.731 151.16 478.535 151.79C475.247 152.42 471.777 152.87 468.032 153.23C464.288 153.59 460.544 153.86 456.799 153.86C447.301 153.86 439.082 152.51 432.141 149.721C425.109 146.932 419.356 143.153 414.79 138.384C410.223 133.615 406.753 127.947 404.561 121.378C402.369 114.72 401.273 107.612 401.273 100.054ZM471.229 88.1772C471.137 85.6579 470.681 83.2285 469.95 80.8891C469.22 78.5498 468.124 76.3903 466.571 74.5908C465.019 72.7913 463.101 71.2617 460.818 70.092C458.443 68.9223 455.612 68.2925 452.142 68.2925C448.854 68.2925 445.932 68.8323 443.557 70.002C441.183 71.0817 439.173 72.6113 437.53 74.4108C435.886 76.2104 434.699 78.3698 433.877 80.7992C432.963 83.2285 432.415 85.6579 431.959 88.1772H471.229V88.1772Z" fill="#231F20"/>
<path d="M182.193 17.0957H213.244V151.16H182.193V94.4752H131.051V151.16H100V17.0957H131.051V68.3821H182.193V17.0957Z" fill="#231F20"/>
</svg>

<svg width="500" height="154" fill="none" xmlns="http://www.w3.org/2000/svg"><path d="M.25 45.348c3.927-1.53 7.945-3.329 12.238-5.398 4.292-2.07 8.402-4.23 12.42-6.659 4.018-2.429 7.945-4.948 11.598-7.648 3.745-2.699 7.032-5.488 10.046-8.547h21.005V151.16H37.419V55.156c-4.018 2.609-8.584 5.038-13.516 7.198-5.023 2.16-9.863 4.049-14.52 5.578L.25 45.348zM271.129 17.365c0 5.399-1.736 9.628-5.297 12.687-3.562 3.06-7.672 4.589-12.512 4.589-4.84 0-8.95-1.53-12.511-4.589-3.562-3.06-5.297-7.288-5.297-12.687 0-5.398 1.735-9.627 5.297-12.686C244.462 1.529 248.571 0 253.411 0c4.841 0 8.95 1.53 12.512 4.589 3.47 3.149 5.206 7.378 5.206 12.776zm-2.192 133.795h-30.138V47.687h30.138V151.16zM327.855 151.158c-6.85-13.136-13.699-28.432-20.731-46.068-7.032-17.545-13.699-36.71-19.909-57.405h31.507a520.17 520.17 0 0 0 4.749 16.646c1.827 5.939 3.653 11.967 5.662 18.085 1.918 6.119 3.836 12.057 5.845 17.816 1.918 5.758 3.836 10.977 5.754 15.745 1.735-4.678 3.561-9.987 5.57-15.745 2.01-5.759 4.019-11.697 5.937-17.816 1.917-6.118 3.835-12.146 5.57-18.085 1.827-5.938 3.379-11.517 4.749-16.646h30.777c-6.301 20.695-12.877 39.86-19.909 57.405-7.032 17.546-13.881 32.932-20.731 46.068h-24.84zM401.273 100.054c0-9.178 1.462-17.275 4.293-24.114 2.831-6.928 6.666-12.596 11.324-17.275 4.658-4.589 10.046-8.098 16.073-10.437a51.547 51.547 0 0 1 18.722-3.51c14.886 0 26.758 4.5 35.343 13.497 8.676 8.998 12.968 22.224 12.968 39.68 0 1.71-.091 3.599-.182 5.578-.092 2.07-.274 3.869-.366 5.399h-67.581c.64 6.028 3.562 10.797 8.585 14.396 5.023 3.509 11.872 5.308 20.366 5.308 5.479 0 10.867-.449 16.073-1.439 5.297-.99 9.589-2.16 12.877-3.599l4.018 23.843c-1.644.81-3.744 1.62-6.393 2.34-2.648.81-5.662 1.439-8.858 2.069-3.288.63-6.758 1.08-10.503 1.44-3.744.36-7.488.63-11.233.63-9.498 0-17.717-1.35-24.658-4.139-7.032-2.789-12.785-6.568-17.351-11.337-4.567-4.769-8.037-10.437-10.229-17.006-2.192-6.658-3.288-13.766-3.288-21.324zm69.956-11.877c-.092-2.52-.548-4.949-1.279-7.288-.73-2.34-1.826-4.499-3.379-6.298a18.956 18.956 0 0 0-5.753-4.499c-2.375-1.17-5.206-1.8-8.676-1.8-3.288 0-6.21.54-8.585 1.71a18.542 18.542 0 0 0-6.027 4.409c-1.644 1.8-2.831 3.959-3.653 6.388-.914 2.43-1.462 4.859-1.918 7.378h39.27zM182.193 17.096h31.051V151.16h-31.051V94.475h-51.142v56.685H100V17.096h31.051v51.286h51.142V17.096z" fill="#231F20"/></svg>
